X: 1
T: Landlord, Fill the Flowing Bowl    [D]
R: song, march
Z: 2017 John Chambers <jc:trillian.mit.edu>
M: 2/4
L: 1/8
K: D
[AA] |\
"D"[dF][AF] [FF][AF] | [dF][dF] [dF][dF] | "A"[eA][eA] [eA][aA] | "D"[f2A2] [dF] ||\
[AF] | "D"[dF][AF] [FF][AF] | [dF][dF] [dF][dF] | "A"[eA][eA] [eA][aA] | "D"[f2A2] [dF] |]
"D7"[fA]>[fA] "D7"[fd][f=c] | "G"[gB][gB] [g2B2] | "A"[eA]>[eA] [eA][eA] | "D"[fA][fA] [f2A2] ||\
"D"[dA]>[dA] [dA][dA] | "Em"[eB][eB] "E7"[e^G][dG] | "A7"[cA][AA] [B^G][c=G] | [e2G2] "D"[dF] |]

